!!!OTL: 160. Versoehnung.
!!!ODT: 1892
!!!ARE: Europa, Mitteleuropa, Deutschland, Merxheim a.d. Nahe
!!!SCT: B0160
!!!TXL: @@DE
!!!YEM: Copyright 1995, estate of Helmut Schaffrath.
**kern	**text
*ICvox	*
*Ivox	*
*M3/4	*
*clefG2	*
*k[f#c#g#]	*
*A:	*
!LO:TX:a:t=Ernſt und würdevoll.	!
{8cc#L	Es
8ddJ	.
=1	=1
4ee	ſtand
4cc#	auf
8cc#	ho-
8dd	-hen
=2	=2
4cc#	Ber-
4b}	-gen
{8b	ei-
8b	-ne
=3	=3
4dd	al-
4b	-te
8b	Burg
8dd	am
=4	=4
2ee}	Rhein.
{8a/L	Sie
8cc#J	.
=5	=5
4ee	lud
4f#	den
8a	mü-
8a	-den
=6	=6
4f#	Pil-
4f#}	-ger
{4b	von
=7	=7
8eL	wei-
8g#J	.
8bL	-tem
8ddJ	.
8cc#	ʒu
8b	ſich
=8	=8
2a}	ein.
{8a/L	Sie
8cc#J	.
=9	=9
4ee	lud
4f#	den
8a	mü-
8a	-den
=10	=10
4f#	Pil-
4f#}	-ger
{4b	von
=11	=11
8eL	wei-
8g#J	.
8bL	-tem
8ddJ	.
8cc#	ʒu
8b	ſich
=12	=12
2a}	ein.
==	==
!!!AGN: Ballade, Romanze
!!!GTL: Balladen und Romanzen
!!!ONB: ESAC (Essen Associative Code) Database: BOEHME
!!!AMT: simple triple
!!!AIN: vox
!!!EED: Helmut Schaffrath
!!!EEV: 1.0
!!Aus Merrheim a. d. Nahe. 1892.
!!@@COMMENT:"Aus K. Becker's handſcht. Sammlung. 1894. Verfaſſer dieſer ſchönen Ballade iſt unbekannt."
!!@@END:
!!!URL-scan: https://archive.org/details/BoehmeVtLieder1895/page/n157/mode/2up
!!!ENC: Anna Maria Matuszewska
!!!EEV: 2024/19/06
*-	*-
